X: 161
T: Tulloch Gorm
R: reel
B: Robert Bremner "A Collection of Scots Reels or Country Dances" p.16 #1
S: http://imslp.org/wiki/A_Collection_of_Scots_Reels_or_Country_Dances_(Bremner,_Robert)
Z: 2013 John Chambers <jc:trillian.mit.edu>
M: C|
L: 1/8
K: Gmix
% - - - - - - - - - - - - - - - - - - - - - - - - -
V: 1
|:\
(G/A/B/c/ d)G cFA2 | BGdG Bcdg |\
BGdG cFA2 | Ggdc TB2AB :|
|:\
Ggde fFA2 | Ggde f>gag |\
fedf cFA2 | Ggde TB2AB :|
% - - - - - - - - - - - - - - - - - - - - - - - - -
V: 2 clef=bass middle=d
|:\
g2g2 f2f2 | g2g2 g2g2 |\
g2g2 f2f2 | g2g2 g2g2 :|\
|: g2g2
f2f2 | g2g2 f2f2 |\
f2f2 f2f2 | g2g2 g2g2 :|
% - - - - - - - - - - - - - - - - - - - - - - - - -

%%sep 1 1 500
%%sep 1 1 500
